X: 733
T: Ey Çeşm-i Âhû
C: Dede Efendi
O: Turkey
F: http://compmusic.upf.edu/node/140
N: hicaz--beste--agirduyek--ey_cesm-i--dede_efendi
N: makam= hicaz
N: form= beste
N: usul= agirduyek = 8/4
M: 8/4
L: 1/16
K: C _7/8B ^f ^c 
Q: 1/4=66
%%MIDI tuningsystem comma53
d4 e8 e4 z2g2 =f2e2 d3c BABc  | B2A2 e2d2 c3B B3A z2AB A2G2 c2BA AGGF  | 
w:  Ey  çeşm_ i  â *  *  hû   |  *  *  hicr_ *  *  *  i *  le  *  *  *  a  | 
G4 A4 A3G F2G2 A4 z4 _1/4B3A G2A2  | \
w:  man  ten ha *  *  la ra  sal  | 
G4 A2=c2 c2_1/4B2 B2A4A4GF AGFE D4  | 
w:  *  dın  *  *  *  be *  ni    | 
z4 A4 A3G F2G2 A2B2 G2A2 B2cd cBA2  | \
w:  ten ha *  *  la ra   | 
z2cd e2dc c3B B3A A2c4BA A6z2  | 
w:  sal *  *  *  *  dın  *  be *  ni    | 
d4 e8 e4 z2g2 =f2e2 d3c BABc  | B2A2 e2d2 c3B B3A z2AB A2G2 c2BA AGGF  | 
w:  Ey  çeşm_ i  â *  *  hû   |  *  *  hicr_ *  *  *  i *  le  *  *  *  a  | 
G4 A4 A3G F2G2 A4 z4 _1/4B3A G2A2  | \
w:  man  ten ha *  *  la ra  sal  | 
G4 A2=c2 c2_1/4B2 B2A4A4GF AGFE D4  | 
w:  *  dın  *  *  *  be *  ni    | 
z4 A4 A3G F2G2 A2B2 G2A2 B2cd cBA2  | \
w:  ten ha *  *  la ra   | 
z2cd e2dc c3B B3A A2c4BA A6z2  | 
w:  sal *  *  *  *  dın  *  be *  ni    | 
A4 a8 a4 z2=b2 a2^g2 g=ffe e4  | e2^g2 =f2e2 d4 =b2=c'2 b2a2 g2ba a8  | 
w:  Çün  nâ fe  bağ  |  rım  *  *  *  hûn  *  e dip   | 
z4 e4 e3d c2d2 e2=f2 d2e2 f2^ga gfe2  | \
w:  sah ra *  *  la ra   | 
z2^ga =b2ag g3=f f3e z2d'4=c'b baag a4  | 
w:  sal *  *  *  *  dın  *  be *  ni    | 
d4 a8 a4 z2ga g2a2 g2a2 g2f2  | f2g4f2 g2f2 =c'2=b2 a2g4f2 agf^e f4  | 
w:  Çün  nâ fe  bağ  |  *  rım  *  hûn  *  *  e dip   | 
z4 f4 a3^g f^ef4ga =b2ag g=ff=e agfe  | \
w:  sah ra *  la *  *  ra   | 
d2g2 =f2e2 eddc c6c4ef eddc d4  | 
w:  *  sal *  *  dın  *  *  *  be ni    | 
A3G F2G2 A4 A4 A4 G2A4G2 A2d2  | d3=c c2c_1/4B B3A A2B2 A2G2 F2E2 A2BA A4  | 
w:  Ah  *  te  ne  ni  ten  ni  te  nen  te  nen   |  na  *  de  re  *  dil  *  li  *  ney  *  *  *  a *  *  man    | 
z4 A4 A3G F2G2 A2B2 G2A2 B2cd cBA2  | \
w:  Sah ra *  *  la ra   | 
z2cd e2dc c3B A2G2 F2GA G2A2 AGFG A4  | 
w:  sal *  *  *  *  dın  *  be *  *  ni   | 
z4 A4 A3G F2G2 A2B2 G2A2 B2cd cBA2  | \
w:  sah ra *  *  la ra   | 
z2cd e2dc c3B B3A A2c4BA A6z2  | 
w:  sal *  *  *  *  dın  *  be *  *  ni    | 
d4 e8 e4 z2g2 =f2e2 d3c BABc  | B2A2 e2d2 c3B B3A z2AB A2G2 c2BA AGGF  | 
w:  Ey  çeşm_ i  â *  *  hû   |  *  *  hicr_ *  *  *  i *  le  *  *  *  a  | 
G4 A4 A3G F2G2 A4 z4 _1/4B3A G2A2  | \
w:  man  ten ha *  *  la ra  sal  | 
G4 A2=c2 c2_1/4B2 B2A4A4GF AGFE D4  | 
w:  *  dın  *  *  *  be *  ni    | 
z4 A4 A3G F2G2 A2B2 G2A2 B2cd cBA2  | \
w:  ten ha *  *  la ra   | 
z2cd e2dc c3B B3A A2c4BA A6z2  | 
w:  sal *  *  *  *  dın  *  be *  ni    | 
d4 e8 e4 z2g2 =f2e2 d3c BABc  | B2A2 e2d2 c3B B3A z2AB A2G2 c2BA AGGF  | 
w:  Ey  çeşm_ i  â *  *  hû   |  *  *  hicr_ *  *  *  i *  le  *  *  *  a  | 
G4 A4 A3G F2G2 A4 z4 _1/4B3A G2A2  | \
w:  man  ten ha *  *  la ra  sal  | 
G4 A2=c2 c2_1/4B2 B2A4A4GF AGFE D4  | 
w:  *  dın  *  *  *  be *  ni    | 
z4 A4 A3G F2G2 A2B2 G2A2 B2cd cBA2  | \
w:  ten ha *  *  la ra   | 
z2cd e2dc c3B B3A A2c4BA A6z2  | 
w:  sal *  *  *  *  dın  *  be *  ni    | 
A4 a8 a4 z2=b2 a2^g2 g=ffe e4  | e2^g2 =f2e2 d4 =b2=c'2 b2a2 g2ba a8  | 
w:  Çün  nâ fe  bağ  |  rım  *  *  *  hûn  *  e dip   | 
z4 e4 e3d c2d2 e2=f2 d2e2 f2^ga gfe2  | \
w:  sah ra *  *  la ra   | 
z2^ga =b2ag g3=f f3e z2d'4=c'b baag a4  | 
w:  sal *  *  *  *  dın  *  be *  ni    | 
d4 a8 a4 z2ga g2a2 g2a2 g2f2  | f2g4f2 g2f2 =c'2=b2 a2g4f2 agf^e f4  | 
w:  Çün  nâ fe  bağ  |  *  rım  *  hûn  *  *  e dip   | 
z4 f4 a3^g f^ef4ga =b2ag g=ff=e agfe  | \
w:  sah ra *  la *  *  ra   | 
d2g2 =f2e2 eddc c6c4ef eddc d4  | 
w:  *  sal *  *  dın  *  *  *  be ni    | 
A3G F2G2 A4 A4 A4 G2A4G2 A2d2  | d3=c c2c_1/4B B3A A2B2 A2G2 F2E2 A2BA A4  | 
w:  Ah  *  te  ne  ni  ten  ni  te  nen  te  nen   |  na  *  de  re  *  dil  *  li  *  ney  *  *  *  a *  *  man    | 
z4 A4 A3G F2G2 A2B2 G2A2 B2cd cBA2  | \
w:  Sah ra *  *  la ra   | 
z2cd e2dc c3B A2G2 F2GA G2A2 AGFG A4  | 
w:  sal *  *  *  *  dın  *  be *  *  ni   | 
z4 A4 A3G F2G2 A2B2 G2A2 B2cd cBA2  | \
w:  sah ra *  *  la ra   | 
z2cd e2dc c3B B3A A2c4BA A6z2  | 
w:  sal *  *  *  *  dın  *  be *  *  ni    | 
|


